X:134011
T:Green Hills of Tyrol (Scottish Soldier)(Simplified)
C: Pipe Major J MacLeod (93rd Highlanders)(1854)
B:
O:Arranged by Kevin Fraser
Z:Kevin Fraser
H:In 1961, the famous Scottish singer Andy Stewart put words to the tune and his song.  (1908) - This is not a Highland tune properly speaking, but it suits the pipes extremely well, and is favourite with many pipers who play it without knowing exactly what it is. It is believed to be an old Tyrolese air, introduced by Rossini into his opera, William Tell. During the Crimean campaign, Pipe Major John MacLeod of the 93rd Highlanders heard a band of the Sardinian contingent playing selections from the opera in the camp before Sebastopol. He was struck by the air, and put it on the pipes. It has been played in the 93rd ever since, generally in parts.
Q:1/4=78
M:3/4
L:1/8
R:March
K:HP
I:MIDI=program 110
U: R = ///
U: r = //
U: V = !accent!
V:M gstem=up stem=down name="Melody"
V:H gstem=up stem=down name="Harmony"
V:C gstem=up stem=down name="C-Harmony"
V:S gstem=up stem=down dyn=up stafflines=1 clef=perc middle=G name="Snare" sname="Snare"" sname="Snare"
V:B gstem=up stem=down clef=none dyn=up name="Bass"
V:T gstem=up stem=down clef=none dyn=up name="Tenor"
T: Green Hills of Tyrol
V:M gstem=up stem=down name="Melody"
%%MIDI program 109 #bagpipes
%%MIDI vol 100
[V:M] |: {g}A>B {g}c2 {g}c{e}A | {g}cd {g}e2 {A}ef | {g}cf {g}e>c {g}B2 | {g}Bf {g}e>c {G}A2 | $
w: {g}A> B {g}c2 {g}c {e}A | {g}c d {g}e2 {A}e f | {g}c f {g}e> c {g}B2 | {g}B f {g}e> c {G}A2 | $
[V:M]    {g}A>B {g}c2 {g}c{e}A | {g}cd {g}e2 {A}ef | {g}cf {g}e>c {g}B2 | {g}B{G}A {g}c>B {G}A2 :| $
w: {g}A> B {g}c2 {g}c {e}A | {g}c d {g}e2 {A}e f | {g}c f {g}e> c {g}B2 | {g}B {G}A {g}c> B {G}A2 :| $
[V:M]|: {g}ce {ag}a2 {g}a2 | {f}gf {g}fe {A}e2 | {g}e>f {g}ed {g}d2 | {g}d>e {g}dc {g}c2 | $
w: {g}ce {ag}a2 {g}a2 | {f}g f {g}f e {A}e2 | {g}e> f {g}e d {g}d2 | {g}d> e {g}d c {g}c2 | $
[V:M]   {g}ce {ag}a2 {g}a2 | {f}gf {g}fe {A}e2 | {g}e>f {g}ed {g}d2 | {g}d>e {g}dc {g}c2 | $
w: {g}c e {ag}a2 {g}a2 | {f}g f {g}f e {A}e2 | {g}e> f {g}e d {g}d2 | {g}d> e {g}d c {g}c2 | $


